X: 172
T: Pater de celis deus
N: Derived from Rue2017-Pater_de_celis_deus.krn
C: Pierre de la Rue
%%abc-version 2.0
%%abcx-abcm2ps-target-version 5.9.1 (29 Sep 2008)
%%abc-creator hum2abc beta
%%abcx-conversion-date 2019/02/17 08:01:17
%%abc-edited-by Jesse Rodin
%%abc-edited-by Chris Gage 01-07-2013
%%abcx-initial-encoding-date 2013/07/22/
%%humdrum-veritas 3947875349
%%humdrum-veritas-data 2343464946
%%linebreak <none>
%%barnumbers 0
L: 1/4
M: 2/1
Q: 1/2=120
V: 1 clef=treble
V: 2 clef=treble-8
V: 3 clef=treble-8
V: 4 clef=treble-8
V: 5 clef=treble-8
V: 6 clef=bass
K: C
[V:1] z8 | 
[V:2] A4c3d | 
[V:3] z8 | 
[V:4] z4A4 | 
[V:5] z8 | 
[V:6] z4A,4 | 
[V:1] z8 | 
[V:2] e2f4e2 | 
[V:3] z8 | 
[V:4] c6B2 | 
[V:5] z8 | 
[V:6] A,6G,2 | 
[V:1] z8 | 
[V:2] d2c2d4 | 
[V:3] z8 | 
[V:4] A2G2A4 | 
[V:5] z8 | 
[V:6] F,2E,2F,4 | 
[V:1] z8 | 
[V:2] e6d2 | 
[V:3] z8 | 
[V:4] B4B4- | 
[V:5] z4G4 | 
[V:6] E,4E,2G,2- | 
[V:1] z8 | 
[V:2] e2g3fed | 
[V:3] z8 | 
[V:4] B2B2c3B | 
[V:5] G6F2 | 
[V:6] G,F,E,D,C,2D,2 | 
[V:1] z8 | 
[V:2] c2d4^c2 | 
[V:3] z8 | 
[V:4] A2G2A4 | 
[V:5] E2D2E4 | 
[V:6] A,,2B,,2A,,4 | 
[V:1] z8 | 
[V:2] d8 | 
[V:3] z4d4 | 
[V:4] z4A4 | 
[V:5] D2D2D2EF | 
[V:6] z4D,4 | 
[V:1] z8 | 
[V:2] z8 | 
[V:3] d6c2 | 
[V:4] G2F2D4- | 
[V:5] GAB3AG2- | 
[V:6] G,,2D,3C,B,,A,, | 
[V:1] z8 | 
[V:2] z4d4 | 
[V:3] B2A2B4 | 
[V:4] D2C2D2G2 | 
[V:5] G2F2G4 | 
[V:6] G,,2A,,2G,,4 | 
[V:1] z4A4 | 
[V:2] d4d4 | 
[V:3] A2A2A2Bc | 
[V:4] F3GA4 | 
[V:5] D8 | 
[V:6] D,8- | 
[V:1] A6G2 | 
[V:2] d4A4- | 
[V:3] def3ed2- | 
[V:4] D2A3GFE | 
[V:5] z8 | 
[V:6] D,8 | 
[V:1] F2E2F4 | 
[V:2] A2G2A3B | 
[V:3] d2c2d4 | 
[V:4] D2E2D4 | 
[V:5] z8 | 
[V:6] z4A,4 | 
[V:1] E2E2E2FG | 
[V:2] c2A2e4 | 
[V:3] A8 | 
[V:4] z2A2c3B | 
[V:5] z8 | 
[V:6] A,6G,2 | 
[V:1] ABc3BA2- | 
[V:2] d2c2d4 | 
[V:3] z8 | 
[V:4] A2G2A4 | 
[V:5] z8 | 
[V:6] F,2E,2F,4 | 
[V:1] A2^G2A4 | 
[V:2] e8 | 
[V:3] z8 | 
[V:4] B4A4 | 
[V:5] z8 | 
[V:6] E,4A,,4 | 
[V:1] E8 | 
[V:2] z4z2e2 | 
[V:3] z8 | 
[V:4] z2G2G2C2- | 
[V:5] z4G4 | 
[V:6] z2E,2E,2G,2- | 
[V:1] z8 | 
[V:2] e2g3fed | 
[V:3] z8 | 
[V:4] CDEFE2A2- | 
[V:5] G6F2 | 
[V:6] G,F,E,D,C,2D,2 | 
[V:1] z8 | 
[V:2] c2d4^c2 | 
[V:3] z8 | 
[V:4] A2G2A4 | 
[V:5] E2D2E4 | 
[V:6] A,,2B,,2A,,4 | 
[V:1] z8 | 
[V:2] d8 | 
[V:3] z4d4 | 
[V:4] z4A4 | 
[V:5] D4F4 | 
[V:6] z4D,4 | 
[V:1] z8 | 
[V:2] z8 | 
[V:3] d6c2 | 
[V:4] G2F2D4- | 
[V:5] G2_B3AG2- | 
[V:6] G,,2D,3C,B,,A,, | 
[V:1] z8 | 
[V:2] z8 | 
[V:3] B2A2B4 | 
[V:4] D2C2D2G2 | 
[V:5] G2F2G2E2 | 
[V:6] G,,2A,,2G,,4 | 
[V:1] z4A4 | 
[V:2] z4e4 | 
[V:3] A4c4 | 
[V:4] F3GA4 | 
[V:5] F2D2E4 | 
[V:6] D,4A,,4 | 
[V:1] A6G2 | 
[V:2] f2d3cBA | 
[V:3] d2f3ed2- | 
[V:4] z2A3GFE | 
[V:5] D8 | 
[V:6] z8 | 
[V:1] F2E2F4 | 
[V:2] A2G2A2d2 | 
[V:3] d2c2d2B2 | 
[V:4] D2E2D4 | 
[V:5] z8 | 
[V:6] z8 | 
[V:1] E4G4 | 
[V:2] c3de4 | 
[V:3] c2A2B4 | 
[V:4] A4E4 | 
[V:5] z8 | 
[V:6] z8 | 
[V:1] A2c3BA2- | 
[V:2] f2e3dc2 | 
[V:3] A8 | 
[V:4] z8 | 
[V:5] z8 | 
[V:6] z8 | 
[V:1] A2G2A2F2 | 
[V:2] B4A2d2- | 
[V:3] z8 | 
[V:4] z8 | 
[V:5] z8 | 
[V:6] z2E,2F,3D, | 
[V:1] G2E2F4 | 
[V:2] dcc4B2 | 
[V:3] z8 | 
[V:4] z8 | 
[V:5] z2G4F2 | 
[V:6] E,2C,2D,4 | 
[V:1] E8 | 
[V:2] c2B2c2c2- | 
[V:3] z8 | 
[V:4] z2G2G2E2 | 
[V:5] G4E2C2 | 
[V:6] C,2G,,2A,,4 | 
[V:1] z8 | 
[V:2] c2B2c4 | 
[V:3] z8 | 
[V:4] G4E4 | 
[V:5] D4C4 | 
[V:6] G,,4z2C,2 | 
[V:1] z8 | 
[V:2] z8 | 
[V:3] z2d4c2 | 
[V:4] D4z2G2- | 
[V:5] F4G4 | 
[V:6] D,2F,2E,4 | 
[V:1] z8 | 
[V:2] z2d4c2 | 
[V:3] d4B2G2 | 
[V:4] G2F2G2E2 | 
[V:5] A4G2G2- | 
[V:6] D,4E,4 | 
[V:1] z8 | 
[V:2] d2d2B4 | 
[V:3] A4G4 | 
[V:4] F2D2z2G2 | 
[V:5] G2^F2G4 | 
[V:6] D,4G,,4 | 
[V:1] z2A4G2 | 
[V:2] A4z2d2- | 
[V:3] c4d4 | 
[V:4] A2c2B4 | 
[V:5] z8 | 
[V:6] z8 | 
[V:1] A4F2D2 | 
[V:2] d2c2d2B2 | 
[V:3] e4d2d2- | 
[V:4] A4B4 | 
[V:5] z8 | 
[V:6] z8 | 
[V:1] E4D4 | 
[V:2] c2A2B3c | 
[V:3] d2^c2d4 | 
[V:4] A4D4 | 
[V:5] z4G4- | 
[V:6] z4G,,3A,, | 
[V:1] G4A4 | 
[V:2] d2e2c4 | 
[V:3] z8 | 
[V:4] z8 | 
[V:5] G2E2F4 | 
[V:6] B,,2C,2A,,4 | 
[V:1] B4A2A2- | 
[V:2] B2d3cBA | 
[V:3] z8 | 
[V:4] z8 | 
[V:5] G4A2F2- | 
[V:6] G,,4D,4 | 
[V:1] A2^G2A4 | 
[V:2] B4A4 | 
[V:3] z4d4- | 
[V:4] z4D3E | 
[V:5] F2E2F3G | 
[V:6] z8 | 
[V:1] z8 | 
[V:2] z8 | 
[V:3] d2B2c4 | 
[V:4] F2G2E4 | 
[V:5] A2B2G4 | 
[V:6] z8 | 
[V:1] z8 | 
[V:2] z8 | 
[V:3] d4e2c2- | 
[V:4] D4A2A2- | 
[V:5] A4z4 | 
[V:6] z2D,2C,2A,,2 | 
[V:1] z4A4- | 
[V:2] z4A3B | 
[V:3] c2B2c3d | 
[V:4] A2^G2A4 | 
[V:5] z8 | 
[V:6] E,4A,,4 | 
[V:1] A2F2G4 | 
[V:2] c2d2B4 | 
[V:3] e2f2d4 | 
[V:4] z8 | 
[V:5] z8 | 
[V:6] z8 | 
[V:1] A4B2G2- | 
[V:2] A4d4 | 
[V:3] e4z4 | 
[V:4] E2F2G4 | 
[V:5] z8 | 
[V:6] A,,4G,,4 | 
[V:1] G2F2G3A | 
[V:2] d3cd2e2 | 
[V:3] z8 | 
[V:4] A4G2C2 | 
[V:5] z4G4- | 
[V:6] D,4G,,2C,2 | 
[V:1] B2c2A4 | 
[V:2] d2e2d4 | 
[V:3] z8 | 
[V:4] G4D4- | 
[V:5] G2E2F4 | 
[V:6] G,,2C,2D,4 | 
[V:1] B4z4 | 
[V:2] d4z2A2 | 
[V:3] z8 | 
[V:4] D4z4 | 
[V:5] G4A2F2- | 
[V:6] G,,4D,2D,2- | 
[V:1] z8 | 
[V:2] B2c2A4 | 
[V:3] z4d4- | 
[V:4] z4D3E | 
[V:5] F2E2F3G | 
[V:6] D,2C,2D,4 | 
[V:1] z8 | 
[V:2] A2G4E2 | 
[V:3] d2B2c4 | 
[V:4] F2G2E4 | 
[V:5] A2B2G4 | 
[V:6] z8 | 
[V:1] z8 | 
[V:2] F4E4- | 
[V:3] d4e2c2- | 
[V:4] D4A2A2- | 
[V:5] A8 | 
[V:6] z2D,2C,2A,,2 | 
[V:1] z4A4- | 
[V:2] E8 | 
[V:3] c2B2c3d | 
[V:4] A2^G2A4 | 
[V:5] z4c4- | 
[V:6] E,4A,,4 | 
[V:1] A2F2G4 | 
[V:2] z8 | 
[V:3] e2f2d4 | 
[V:4] z8 | 
[V:5] c2A2B4 | 
[V:6] z8 | 
[V:1] A4B2G2- | 
[V:2] z4B4 | 
[V:3] e8 | 
[V:4] E2F2G2E2- | 
[V:5] A4G4- | 
[V:6] A,,4E,4- | 
[V:1] G2F2G3A | 
[V:2] B6c2 | 
[V:3] z4g4- | 
[V:4] E2F2D2C2 | 
[V:5] G2A2B2G2- | 
[V:6] E,2D,2G,,2C,2 | 
[V:1] B2c2A4 | 
[V:2] d2A2d4 | 
[V:3] g2e2f4 | 
[V:4] G2C2F4 | 
[V:5] G2A2F3G | 
[V:6] G,,2C,2D,4 | 
[V:1] B8 | 
[V:2] B6AG | 
[V:3] e4d4- | 
[V:4] z4D4 | 
[V:5] G4z4 | 
[V:6] G,,8 | 
[V:1] z4d4- | 
[V:2] BABcdcBA | 
[V:3] d2e2f2d2- | 
[V:4] G3FD2G2 | 
[V:5] z8 | 
[V:6] z8 | 
[V:1] d2B2c4 | 
[V:2] G2g4^f2 | 
[V:3] d2e2c3d | 
[V:4] B3cA4 | 
[V:5] z8 | 
[V:6] z8 | 
[V:1] B4A4- | 
[V:2] g4z2f2- | 
[V:3] d4z4 | 
[V:4] G4D4 | 
[V:5] z8 | 
[V:6] z8 | 
[V:1] A2B2c2A2- | 
[V:2] f2edc3d | 
[V:3] z8 | 
[V:4] F2G2A4 | 
[V:5] z4c4- | 
[V:6] z8 | 
[V:1] A2B2G3A | 
[V:2] e2f2d4 | 
[V:3] z8 | 
[V:4] z8 | 
[V:5] c2BAB4 | 
[V:6] z8 | 
[V:1] A4z4 | 
[V:2] e2c2e2f2 | 
[V:3] z8 | 
[V:4] z8 | 
[V:5] A4G4- | 
[V:6] A,,4C,3D, | 
[V:1] z8 | 
[V:2] g3fe2d2- | 
[V:3] z4g4- | 
[V:4] z8 | 
[V:5] G2A2B2G2- | 
[V:6] E,2F,2G,3F, | 
[V:1] z8 | 
[V:2] dcc4B2 | 
[V:3] g2fef4 | 
[V:4] z8 | 
[V:5] G2A2F3G | 
[V:6] E,2C,2D,4 | 
[V:1] z8 | 
[V:2] c4z2g2- | 
[V:3] e4d4- | 
[V:4] E4G3A | 
[V:5] G8 | 
[V:6] C,4G,,4 | 
[V:1] z4d4- | 
[V:2] g2fedcde | 
[V:3] d2e2f2d2- | 
[V:4] B2c2d3c | 
[V:5] z8 | 
[V:6] z8 | 
[V:1] d2cBc4 | 
[V:2] f2g4^f2 | 
[V:3] d2e2c3d | 
[V:4] B2G2A4 | 
[V:5] z8 | 
[V:6] z8 | 
[V:1] B4A4- | 
[V:2] g4f2f2- | 
[V:3] d8 | 
[V:4] G4D4 | 
[V:5] z8 | 
[V:6] z8 | 
[V:1] A2B2c2A2- | 
[V:2] f2edc3d | 
[V:3] z8 | 
[V:4] F2G2A3B | 
[V:5] z8 | 
[V:6] z8 | 
[V:1] A2B2G3A | 
[V:2] e2f2d4 | 
[V:3] z8 | 
[V:4] c2d2B4 | 
[V:5] z8 | 
[V:6] z8 | 
[V:1] A8 | 
[V:2] e8 | 
[V:3] z8 | 
[V:4] A4E3F | 
[V:5] c6c2 | 
[V:6] A,,4C,3D, | 
[V:1] z8 | 
[V:2] z8 | 
[V:3] z8 | 
[V:4] G2A4G2- | 
[V:5] c4c4 | 
[V:6] E,2F,4E,2 | 
[V:1] z8 | 
[V:2] z4A4 | 
[V:3] z8 | 
[V:4] GFEDC4 | 
[V:5] A4F4 | 
[V:6] C,3B,,A,,4 | 
[V:1] z8 | 
[V:2] B2G2B3c | 
[V:3] g6g2 | 
[V:4] D2E2D2G2- | 
[V:5] G4G3A | 
[V:6] G,,8- | 
[V:1] z8 | 
[V:2] d2G4d2 | 
[V:3] g4g4 | 
[V:4] GFE2D4 | 
[V:5] B2c4B2 | 
[V:6] G,,8 | 
[V:1] z8 | 
[V:2] e2g4^f2 | 
[V:3] e4c4 | 
[V:4] C4z4 | 
[V:5] cBAGA4 | 
[V:6] z8 | 
[V:1] d6d2 | 
[V:2] g4d4- | 
[V:3] d4d3e | 
[V:4] z8 | 
[V:5] G8 | 
[V:6] G,,4G,,A,,B,,C, | 
[V:1] d4d4 | 
[V:2] d4d4 | 
[V:3] f2g4f2 | 
[V:4] z8 | 
[V:5] z8 | 
[V:6] D,2G,,2D,4 | 
[V:1] B4G4 | 
[V:2] z4g4 | 
[V:3] gfede4 | 
[V:4] z4G4 | 
[V:5] z8 | 
[V:6] G,,8 | 
[V:1] A4A3B | 
[V:2] f3ed2cB | 
[V:3] d8 | 
[V:4] D4DEFG | 
[V:5] z8 | 
[V:6] z8 | 
[V:1] c2d4c2 | 
[V:2] A8 | 
[V:3] z8 | 
[V:4] A2D2A4 | 
[V:5] z8 | 
[V:6] z8 | 
[V:1] dcBAB4 | 
[V:2] z4g4 | 
[V:3] z8 | 
[V:4] D8 | 
[V:5] z8 | 
[V:6] z4G,,4 | 
[V:1] A8 | 
[V:2] f3ed2cB | 
[V:3] z8 | 
[V:4] z8 | 
[V:5] z8 | 
[V:6] D,4D,3E, | 
[V:1] z8 | 
[V:2] A2G2A4 | 
[V:3] z8 | 
[V:4] z8 | 
[V:5] z4c4 | 
[V:6] F,2G,4F,2 | 
[V:1] z8 | 
[V:2] G4c3A | 
[V:3] z8 | 
[V:4] z8 | 
[V:5] B2G4^F2 | 
[V:6] G,2G,,2A,,4 | 
[V:1] z8 | 
[V:2] B2c4B2 | 
[V:3] z8 | 
[V:4] z4G4 | 
[V:5] G2E2D4 | 
[V:6] G,,8 | 
[V:1] z8 | 
[V:2] c8 | 
[V:3] z4g4 | 
[V:4] E2E4C2 | 
[V:5] C8 | 
[V:6] z8 | 
[V:1] z8 | 
[V:2] z8 | 
[V:3] f2d4c2 | 
[V:4] D2F2E4 | 
[V:5] z2F2G2A2 | 
[V:6] z4z2A,,2 | 
[V:1] z8 | 
[V:2] z4d4 | 
[V:3] d2B2A4 | 
[V:4] D8 | 
[V:5] _B2G4F2 | 
[V:6] D,2G,,2D,2D,2 | 
[V:1] z4d4 | 
[V:2] B2B4G2 | 
[V:3] G8 | 
[V:4] z8 | 
[V:5] G2E2D4 | 
[V:6] G,,8 | 
[V:1] c2A4G2 | 
[V:2] A2c2B4 | 
[V:3] z2c2d2e2 | 
[V:4] z4z2E2 | 
[V:5] z8 | 
[V:6] z8 | 
[V:1] A2F2E4 | 
[V:2] A4z4 | 
[V:3] f2d4c2 | 
[V:4] A2D2E4 | 
[V:5] z2F2G2A2 | 
[V:6] z4z2A,,2 | 
[V:1] D8 | 
[V:2] z4d4 | 
[V:3] d2B2A4 | 
[V:4] z8 | 
[V:5] _B2G4F2 | 
[V:6] D,2G,,2D,2D,2 | 
[V:1] z2G2A2B2 | 
[V:2] B2B4AG | 
[V:3] z8 | 
[V:4] z8 | 
[V:5] G2E2D4 | 
[V:6] G,,4z4 | 
[V:1] c2A4G2 | 
[V:2] AGc2B4 | 
[V:3] z2c2d2e2 | 
[V:4] z4z2E2 | 
[V:5] C4z4 | 
[V:6] z8 | 
[V:1] A2F2E4 | 
[V:2] A4z4 | 
[V:3] f2d4c2 | 
[V:4] A2D2E2E2 | 
[V:5] z2F2G2A2 | 
[V:6] z4z2A,,2 | 
[V:1] z8 | 
[V:2] z8 | 
[V:3] d2B2A4 | 
[V:4] D8 | 
[V:5] _B2G4F2 | 
[V:6] D,2G,,2D,2D,2 | 
[V:1] z2G2A2B2 | 
[V:2] z8 | 
[V:3] G4z4 | 
[V:4] D4F4 | 
[V:5] G2E2D4 | 
[V:6] G,,4D,4 | 
[V:1] c2A4G2 | 
[V:2] z8 | 
[V:3] z2c2d2e2 | 
[V:4] E4z2E2 | 
[V:5] C4z4 | 
[V:6] A,,4z4 | 
[V:1] A2F2E4 | 
[V:2] z8 | 
[V:3] f2d4c2 | 
[V:4] A2D2A2A2 | 
[V:5] z8 | 
[V:6] z8 | 
[V:1] D4z4 | 
[V:2] z4d4 | 
[V:3] d2B2A4 | 
[V:4] D8 | 
[V:5] z8 | 
[V:6] z8 | 
[V:1] z2G2A2B2 | 
[V:2] B2B4G2 | 
[V:3] G4z4 | 
[V:4] z8 | 
[V:5] z8 | 
[V:6] z8 | 
[V:1] c2A4G2 | 
[V:2] A2c2d2e2 | 
[V:3] z8 | 
[V:4] z2F4E2 | 
[V:5] z8 | 
[V:6] z8 | 
[V:1] A2F2E4 | 
[V:2] f2d3^c^c2 | 
[V:3] z8 | 
[V:4] D2F2G2A2 | 
[V:5] z8 | 
[V:6] z8 | 
[V:1] D4z4 | 
[V:2] d2d2d2f2- | 
[V:3] z8 | 
[V:4] _B4A4- | 
[V:5] F4F4 | 
[V:6] D,6D,2 | 
[V:1] z8 | 
[V:2] fedcd4 | 
[V:3] z8 | 
[V:4] A4A4- | 
[V:5] F2F2F4 | 
[V:6] D,4D,4 | 
[V:1] z8 | 
[V:2] e8- | 
[V:3] z8 | 
[V:4] A2A2A4 | 
[V:5] E4E4- | 
[V:6] A,,6B,,2 | 
[V:1] z8 | 
[V:2] e8 | 
[V:3] c4c4 | 
[V:4] G6E2 | 
[V:5] E2F2G4 | 
[V:6] C,3D,E,4 | 
[V:1] z8 | 
[V:2] z8 | 
[V:3] c2c2c4 | 
[V:4] E4F4 | 
[V:5] A4A4 | 
[V:6] A,,4F,,4 | 
[V:1] z8 | 
[V:2] z8 | 
[V:3] B4B4- | 
[V:4] D4G4- | 
[V:5] G3FE2D2- | 
[V:6] G,,8 | 
[V:1] G4G4 | 
[V:2] z8 | 
[V:3] B2c2d4 | 
[V:4] G4G4 | 
[V:5] D2C4B,2 | 
[V:6] G,,8 | 
[V:1] G2G2G4 | 
[V:2] z8 | 
[V:3] e4e4 | 
[V:4] G4E2E2 | 
[V:5] C8 | 
[V:6] z4C,4 | 
[V:1] F4F4- | 
[V:2] z8 | 
[V:3] d3cB2A2- | 
[V:4] A3GFEF2- | 
[V:5] z8 | 
[V:6] D,4D,2D,2- | 
[V:1] F2G2A4 | 
[V:2] z8 | 
[V:3] A2G4^F2 | 
[V:4] FED4C2 | 
[V:5] z8 | 
[V:6] D,C,B,,2A,,4 | 
[V:1] B4B4 | 
[V:2] d4B2B2 | 
[V:3] G8 | 
[V:4] D4G4 | 
[V:5] z8 | 
[V:6] G,,8 | 
[V:1] A3GF2E2- | 
[V:2] e3dcBc2- | 
[V:3] z8 | 
[V:4] A4A2A2- | 
[V:5] z8 | 
[V:6] z8 | 
[V:1] E2D4^C2 | 
[V:2] cBA4G2 | 
[V:3] z8 | 
[V:4] AGF2E4 | 
[V:5] z8 | 
[V:6] z8 | 
[V:1] D8 | 
[V:2] A2d2d2f2- | 
[V:3] z8 | 
[V:4] D4A4- | 
[V:5] F4F4 | 
[V:6] D,6D,2 | 
[V:1] z8 | 
[V:2] fedcd4 | 
[V:3] z8 | 
[V:4] A4A4 | 
[V:5] F2F2F4 | 
[V:6] D,4D,4 | 
[V:1] z8 | 
[V:2] e8- | 
[V:3] z8 | 
[V:4] A4A4 | 
[V:5] E4E4- | 
[V:6] A,,6B,,2 | 
[V:1] z8 | 
[V:2] e8 | 
[V:3] c4c4 | 
[V:4] G6E2 | 
[V:5] E2F2G4 | 
[V:6] C,3D,E,4 | 
[V:1] z8 | 
[V:2] z8 | 
[V:3] c2c2c4 | 
[V:4] E4F4 | 
[V:5] A4A4 | 
[V:6] A,,4F,,4 | 
[V:1] z8 | 
[V:2] z8 | 
[V:3] B4B4- | 
[V:4] D4G4- | 
[V:5] G3FE2D2- | 
[V:6] G,,8 | 
[V:1] G4G4 | 
[V:2] z8 | 
[V:3] B2c2d4 | 
[V:4] G4G4 | 
[V:5] D2C4B,2 | 
[V:6] G,,8 | 
[V:1] G2G2G4 | 
[V:2] z8 | 
[V:3] e4e4 | 
[V:4] G4E2E2 | 
[V:5] C8 | 
[V:6] z4C,4 | 
[V:1] F4F4- | 
[V:2] z8 | 
[V:3] d3cB2A2- | 
[V:4] A3GFEF2- | 
[V:5] z8 | 
[V:6] D,4D,2D,2- | 
[V:1] F2G2A4 | 
[V:2] z8 | 
[V:3] A2G4^F2 | 
[V:4] FED4C2 | 
[V:5] z8 | 
[V:6] D,C,B,,2A,,4 | 
[V:1] B4B4 | 
[V:2] d4B2B2 | 
[V:3] G8 | 
[V:4] D4G4 | 
[V:5] z8 | 
[V:6] G,,8 | 
[V:1] A3GF2E2- | 
[V:2] e3dcBc2- | 
[V:3] z8 | 
[V:4] A4A2A2- | 
[V:5] z8 | 
[V:6] z2C,2D,2C,2 | 
[V:1] E2D4^C2 | 
[V:2] cBAGA4 | 
[V:3] z8 | 
[V:4] AGF2E4 | 
[V:5] z8 | 
[V:6] D,4A,,4 | 
[V:1] D8 ||  
[V:2] A8 ||  
[V:3] z8 ||  
[V:4] D8 ||  
[V:5] z8 ||  
[V:6] D,,8 ||  
[V:1]  [K:C] [K:clef=treble][M:2/1]z8 | 
[V:2]  [K:C] [K:clef=treble-8][M:2/1]z8 | 
[V:3]  [K:C] [K:clef=treble-8][M:2/1]z8 | 
[V:4]  [K:C] [K:clef=treble-8][M:2/1]z8 | 
[V:5]  [K:C] [K:clef=treble-8][M:2/1]D4D2D2 | 
[V:6]  [K:C] [K:clef=bass][M:2/1]z4D,4 | 
[V:1] z8 | 
[V:2] z8 | 
[V:3] z8 | 
[V:4] z8 | 
[V:5] E3FG2A2- | 
[V:6] C,2A,,2B,,2C,2 | 
[V:1] z8 | 
[V:2] z8 | 
[V:3] A4A2A2 | 
[V:4] z4C4 | 
[V:5] AGG3^F^F2 | 
[V:6] C,B,,A,,G,,A,,4 | 
[V:1] z8 | 
[V:2] z8 | 
[V:3] B3cd2e2- | 
[V:4] D2E2D2G2 | 
[V:5] G4z4 | 
[V:6] G,,8 | 
[V:1] E4E2E2 | 
[V:2] z4G4 | 
[V:3] edd3^c^c2 | 
[V:4] GFEDE4 | 
[V:5] z8 | 
[V:6] z8 | 
[V:1] F3GA2B2- | 
[V:2] A2B2A2d2 | 
[V:3] d4z4 | 
[V:4] D8 | 
[V:5] z8 | 
[V:6] z8 | 
[V:1] BAA3GG2 | 
[V:2] dcBAB4 | 
[V:3] z8 | 
[V:4] z8 | 
[V:5] D4D2D2 | 
[V:6] z4G,,4 | 
[V:1] A4z4 | 
[V:2] A4z4 | 
[V:3] z8 | 
[V:4] z8 | 
[V:5] E3FG2A2- | 
[V:6] C,2A,,2B,,2C,2 | 
[V:1] z8 | 
[V:2] z8 | 
[V:3] A4A2A2 | 
[V:4] z4C4 | 
[V:5] A2G3^F^F2 | 
[V:6] C,B,,A,,G,,A,,4 | 
[V:1] z8 | 
[V:2] z8 | 
[V:3] B3cd2e2- | 
[V:4] D2E2D2G2 | 
[V:5] G4G4 | 
[V:6] G,,3A,,B,,2C,2- | 
[V:1] E4E2E2 | 
[V:2] z4A4 | 
[V:3] e2d3^c^c2 | 
[V:4] G3FE2C2 | 
[V:5] E4E4 | 
[V:6] C,B,,G,,2A,,4 | 
[V:1] F3GA2B2- | 
[V:2] A2B2A2d2- | 
[V:3] d4d4 | 
[V:4] F6D2 | 
[V:5] D4z4 | 
[V:6] D,4z4 | 
[V:1] B2A3^GG2 | 
[V:2] dcd2e4 | 
[V:3] B4B4 | 
[V:4] G3EE4 | 
[V:5] z8 | 
[V:6] z8 | 
[V:1] A4A4 | 
[V:2] f6e2 | 
[V:3] A4z4 | 
[V:4] z4A4 | 
[V:5] F8 | 
[V:6] D,8 | 
[V:1] F4F4 | 
[V:2] d6c2 | 
[V:3] z8 | 
[V:4] A2A2A2A2 | 
[V:5] F4F4 | 
[V:6] D,4D,4 | 
[V:1] E4z4 | 
[V:2] c4z4 | 
[V:3] c8 | 
[V:4] A2c3BA2 | 
[V:5] C3DE2F2- | 
[V:6] A,,3B,,C,2F,,2 | 
[V:1] z8 | 
[V:2] z8 | 
[V:3] c4c4 | 
[V:4] G4F4 | 
[V:5] F2E2F4 | 
[V:6] C,4F,,4 | 
[V:1] G8 | 
[V:2] z2e2d2c2 | 
[V:3] G3AB2c2- | 
[V:4] G8- | 
[V:5] E2G3FE2 | 
[V:6] C,4G,,4- | 
[V:1] G4G4 | 
[V:2] d4e4 | 
[V:3] c2B2c4 | 
[V:4] G8 | 
[V:5] D4C4 | 
[V:6] G,,4z4 | 
[V:1] D3EF2G2- | 
[V:2] z2f3ed2- | 
[V:3] B2d3cB2 | 
[V:4] z8 | 
[V:5] z8 | 
[V:6] z8 | 
[V:1] G2^F2G4 | 
[V:2] d2c2d2Bc | 
[V:3] A4G4 | 
[V:4] z4G4 | 
[V:5] z8 | 
[V:6] z8 | 
[V:1] F2A3GF2 | 
[V:2] def3ed2- | 
[V:3] z8 | 
[V:4] D2D2DEFG | 
[V:5] z8 | 
[V:6] z8 | 
[V:1] E4D4 | 
[V:2] d2^c2d4 | 
[V:3] z8 | 
[V:4] A8 | 
[V:5] z4F4- | 
[V:6] z4D,4- | 
[V:1] z8 | 
[V:2] d4d4 | 
[V:3] z8 | 
[V:4] A4A4 | 
[V:5] F4F4 | 
[V:6] D,4D,4 | 
[V:1] z8 | 
[V:2] e4z4 | 
[V:3] z4c4- | 
[V:4] A2c3BA2 | 
[V:5] C3DE2F2- | 
[V:6] A,,3B,,C,2F,,2 | 
[V:1] z8 | 
[V:2] z8 | 
[V:3] c4c4 | 
[V:4] G4F4 | 
[V:5] F2E2F4 | 
[V:6] C,4F,,4 | 
[V:1] z4G4- | 
[V:2] z2e2d2c2 | 
[V:3] G3AB2c2- | 
[V:4] G8- | 
[V:5] E2G3FE2 | 
[V:6] C,4G,,4- | 
[V:1] G4G4 | 
[V:2] d4e4 | 
[V:3] c2B2c4 | 
[V:4] G8 | 
[V:5] D4C4 | 
[V:6] G,,4z4 | 
[V:1] D3EF2G2- | 
[V:2] z2B2c2d2 | 
[V:3] B2d3cB2 | 
[V:4] z8 | 
[V:5] G4A2B2 | 
[V:6] z8 | 
[V:1] G2^F2G4 | 
[V:2] e2c2d4- | 
[V:3] A4G4 | 
[V:4] z8 | 
[V:5] c4B4 | 
[V:6] z8 | 
[V:1] F2A3GF2 | 
[V:2] d2f2e2d2- | 
[V:3] d4e2f2 | 
[V:4] z8 | 
[V:5] z8 | 
[V:6] z8 | 
[V:1] E4D4 | 
[V:2] d2^c2d3c | 
[V:3] g4f4 | 
[V:4] z4z2F2- | 
[V:5] z8 | 
[V:6] z4z2D,2- | 
[V:1] A4B2c2 | 
[V:2] ABc2B2A2- | 
[V:3] z8 | 
[V:4] F2E2F2E2 | 
[V:5] z8 | 
[V:6] D,2C,2D,2A,,2 | 
[V:1] d4c4 | 
[V:2] A2^G2A4- | 
[V:3] z8 | 
[V:4] DCD2E2E2 | 
[V:5] z8 | 
[V:6] B,,4A,,2A,,2 | 
[V:1] z8 | 
[V:2] A4z4 | 
[V:3] z8 | 
[V:4] E2C2CDEF | 
[V:5] z4c4 | 
[V:6] A,,2A,,2A,,B,,C,D, | 
[V:1] z8 | 
[V:2] z4d4 | 
[V:3] z8 | 
[V:4] G2A2F4 | 
[V:5] c2A2B4 | 
[V:6] E,2F,2D,4 | 
[V:1] z8 | 
[V:2] e2e3dc2 | 
[V:3] z4g4 | 
[V:4] G8 | 
[V:5] c2c2G3A | 
[V:6] C,2C,2C,D,E,F, | 
[V:1] z8 | 
[V:2] B2e2d4 | 
[V:3] g2e2f4 | 
[V:4] z8 | 
[V:5] B2c2A4 | 
[V:6] G,2C,2D,2D,2 | 
[V:1] z4d4 | 
[V:2] B8 | 
[V:3] g2g2d3e | 
[V:4] z2G2GABc | 
[V:5] G4z4 | 
[V:6] G,,8 | 
[V:1] d2B2c4 | 
[V:2] z4z2e2 | 
[V:3] f2g2e4 | 
[V:4] d2G2A2A2 | 
[V:5] z8 | 
[V:6] z8 | 
[V:1] d2d2A3B | 
[V:2] f2f4ed | 
[V:3] d4z4 | 
[V:4] D4z4 | 
[V:5] z4c4 | 
[V:6] z2D,2F,3G, | 
[V:1] c2d2B4 | 
[V:2] c2f4e2 | 
[V:3] z8 | 
[V:4] z8 | 
[V:5] c2A2B4 | 
[V:6] A,2F,2G,4 | 
[V:1] A4z4 | 
[V:2] f4e4 | 
[V:3] z4g4 | 
[V:4] z8 | 
[V:5] c2c2G3A | 
[V:6] F,2F,,2C,D,E,F, | 
[V:1] z8 | 
[V:2] d2e2d4 | 
[V:3] g2e2f4 | 
[V:4] z8 | 
[V:5] B2c2A4 | 
[V:6] G,2C,2D,2D,2 | 
[V:1] z4d4 | 
[V:2] B4G4 | 
[V:3] g2g2d3e | 
[V:4] z8 | 
[V:5] G4B4- | 
[V:6] G,,8 | 
[V:1] d2B2c4 | 
[V:2] z8 | 
[V:3] f2g2e4 | 
[V:4] z8 | 
[V:5] B2G2A4 | 
[V:6] z8 | 
[V:1] d2d2A3B | 
[V:2] z8 | 
[V:3] d4f4- | 
[V:4] z8 | 
[V:5] z2D3EFG | 
[V:6] z8 | 
[V:1] c2d2B4 | 
[V:2] z8 | 
[V:3] f2d2e4 | 
[V:4] z8 | 
[V:5] A2_B2G4 | 
[V:6] z8 | 
[V:1] A4c4- | 
[V:2] z8 | 
[V:3] z2A3Bcd | 
[V:4] z2F2FGAB | 
[V:5] F8 | 
[V:6] z8 | 
[V:1] c2A2B4 | 
[V:2] z4g4 | 
[V:3] e2f2d4 | 
[V:4] c2F2G2G2 | 
[V:5] z8 | 
[V:6] z8 | 
[V:1] z2E3FGA | 
[V:2] e2g3fe2- | 
[V:3] c8 | 
[V:4] CDEFG4- | 
[V:5] z8 | 
[V:6] z2C,3D,E,F, | 
[V:1] B2c2A4 | 
[V:2] e2dcd4 | 
[V:3] z8 | 
[V:4] G2F2A4 | 
[V:5] z8 | 
[V:6] G,2A,2F,4 | 
[V:1] G8 | 
[V:2] e2g2e2g2- | 
[V:3] z8 | 
[V:4] B2c4B2- | 
[V:5] z8 | 
[V:6] E,2C,3D,E,F, | 
[V:1] z8 | 
[V:2] gfe4d2 | 
[V:3] z8 | 
[V:4] B2AGA4 | 
[V:5] z8 | 
[V:6] G,2A,2F,4 | 
[V:1] z8 | 
[V:2] e8 | 
[V:3] z8 | 
[V:4] B8 | 
[V:5] G6G2 | 
[V:6] E,8 | 
[V:1] z8 | 
[V:2] z8 | 
[V:3] z8 | 
[V:4] c2c4B2 | 
[V:5] G3FGAB2- | 
[V:6] C,3D,E,F,G,2- | 
[V:1] z8 | 
[V:2] z8 | 
[V:3] d6d2 | 
[V:4] G2B2A4 | 
[V:5] BAG4^F2 | 
[V:6] G,F,G,2D,4 | 
[V:1] z8 | 
[V:2] z8 | 
[V:3] d3cdef2- | 
[V:4] G4z4 | 
[V:5] G2G4F2 | 
[V:6] G,,3A,,B,,C,D,2- | 
[V:1] A6A2 | 
[V:2] z4e4 | 
[V:3] fed4^c2 | 
[V:4] z8 | 
[V:5] D2F2E4 | 
[V:6] D,C,D,2A,,4 | 
[V:1] A3GABc2- | 
[V:2] f6e2 | 
[V:3] d2d4c2 | 
[V:4] D3EFGA2- | 
[V:5] D4z4 | 
[V:6] z8 | 
[V:1] cBA4^G2 | 
[V:2] c3de4 | 
[V:3] A2c2B4 | 
[V:4] AGA2E4 | 
[V:5] z8 | 
[V:6] z4z2E,2 | 
[V:1] A2A4G2 | 
[V:2] c2fedce2- | 
[V:3] A4z4 | 
[V:4] z2A2F2G2- | 
[V:5] z8 | 
[V:6] F,2F,4E,2 | 
[V:1] E2G2F4 | 
[V:2] edc4B2 | 
[V:3] z8 | 
[V:4] G2E2F4 | 
[V:5] z8 | 
[V:6] C,2E,2D,4 | 
[V:1] E4z4 | 
[V:2] c8 | 
[V:3] z8 | 
[V:4] G3EE4 | 
[V:5] G6G2 | 
[V:6] C,8 | 
[V:1] z8 | 
[V:2] z8 | 
[V:3] z8 | 
[V:4] c2c4B2 | 
[V:5] G3FGAB2- | 
[V:6] C,3D,E,F,G,2- | 
[V:1] z8 | 
[V:2] z8 | 
[V:3] d6d2 | 
[V:4] G2B2A4 | 
[V:5] BAG4^F2 | 
[V:6] G,F,G,2D,4 | 
[V:1] z8 | 
[V:2] z8 | 
[V:3] d3cdef2- | 
[V:4] G2_B4A2 | 
[V:5] G2G4F2 | 
[V:6] G,,3A,,B,,C,D,2- | 
[V:1] A6A2 | 
[V:2] z4e4 | 
[V:3] fed4^c2 | 
[V:4] F3GA4 | 
[V:5] D2F2E4 | 
[V:6] D,C,D,2A,,4 | 
[V:1] A3GABc2- | 
[V:2] f6e2 | 
[V:3] d2d4c2 | 
[V:4] A8 | 
[V:5] D3EFGA2- | 
[V:6] z8 | 
[V:1] cBA4^G2 | 
[V:2] c4d2e2 | 
[V:3] A2c2B4 | 
[V:4] z8 | 
[V:5] AGF4E2 | 
[V:6] z8 | 
[V:1] A2A4G2 | 
[V:2] c2A4B2 | 
[V:3] A3Bcde2- | 
[V:4] z8 | 
[V:5] F2F4E2 | 
[V:6] z8 | 
[V:1] E2G2F4 | 
[V:2] c4F4 | 
[V:3] edc4B2 | 
[V:4] z8 | 
[V:5] C2E2D4 | 
[V:6] z8 | 
[V:1] E3FGAB2- | 
[V:2] G4G3A | 
[V:3] c2c4B2 | 
[V:4] z8 | 
[V:5] C4z4 | 
[V:6] C,3D,E,F,G,2- | 
[V:1] BAG4^F2 | 
[V:2] B3cd4 | 
[V:3] G2B2A4 | 
[V:4] z8 | 
[V:5] z8 | 
[V:6] G,F,G,2D,4 | 
[V:1] G2G4F2 | 
[V:2] B3cdef2- | 
[V:3] G4z4 | 
[V:4] G3ABcd2- | 
[V:5] z8 | 
[V:6] G,,4z4 | 
[V:1] D2F2E4 | 
[V:2] fed4^c2 | 
[V:3] z8 | 
[V:4] dcd2A4 | 
[V:5] z8 | 
[V:6] z8 | 
[V:1] D4z4 | 
[V:2] d2Bcdef2- | 
[V:3] z8 | 
[V:4] D2G4F2 | 
[V:5] z8 | 
[V:6] G,,3A,,B,,C,D,2- | 
[V:1] z8 | 
[V:2] fed4^c2 | 
[V:3] z8 | 
[V:4] D2F2E4 | 
[V:5] z8 | 
[V:6] D,C,D,2A,,4 | 
[V:1] z8 | 
[V:2] d2d2d2d2- | 
[V:3] z8 | 
[V:4] D2G2G2G2 | 
[V:5] z4D4 | 
[V:6] _B,,2G,,2G,,2G,,2 | 
[V:1] z8 | 
[V:2] d2d2f4- | 
[V:3] z8 | 
[V:4] F6G2 | 
[V:5] D2D4D2 | 
[V:6] _B,,6A,,G,, | 
[V:1] z8 | 
[V:2] f2edc4- | 
[V:3] z4A4 | 
[V:4] A6GF | 
[V:5] F6ED | 
[V:6] F,,8 | 
[V:1] z8 | 
[V:2] c4e4 | 
[V:3] A2A4A2 | 
[V:4] E8 | 
[V:5] C8 | 
[V:6] A,,4A,,4 | 
[V:1] z4E4 | 
[V:2] e4e4 | 
[V:3] c6BA | 
[V:4] z8 | 
[V:5] E4E4 | 
[V:6] A,,4C,4- | 
[V:1] E2E4E2 | 
[V:2] g6fe | 
[V:3] G8 | 
[V:4] z8 | 
[V:5] E4G4- | 
[V:6] C,2B,,A,,G,,4 | 
[V:1] G6FE | 
[V:2] d4z4 | 
[V:3] B4B4 | 
[V:4] G4G4 | 
[V:5] G2FED4 | 
[V:6] G,,4G,,2G,,2- | 
[V:1] D8 | 
[V:2] d4d2d2- | 
[V:3] B4d4- | 
[V:4] G4F4- | 
[V:5] z4D4 | 
[V:6] G,,2G,,2_B,,4- | 
[V:1] F4F4 | 
[V:2] d2d2f4- | 
[V:3] d2cBA4 | 
[V:4] F2G2A4- | 
[V:5] D2D4D2 | 
[V:6] B,,2A,,G,,F,,4- | 
[V:1] F4A4- | 
[V:2] f2edc4- | 
[V:3] z4A4 | 
[V:4] A2G2F4 | 
[V:5] F6ED | 
[V:6] F,,8 | 
[V:1] A2GFE4 | 
[V:2] c4e4 | 
[V:3] A2A4A2 | 
[V:4] E8 | 
[V:5] C8 | 
[V:6] A,,4A,,4 | 
[V:1] z4E4 | 
[V:2] e4e4 | 
[V:3] c6BA | 
[V:4] z8 | 
[V:5] E4E4 | 
[V:6] A,,4C,4- | 
[V:1] E2E4E2 | 
[V:2] g6fe | 
[V:3] G8 | 
[V:4] z4G4 | 
[V:5] E4G4- | 
[V:6] C,2B,,A,,G,,4- | 
[V:1] G6FE | 
[V:2] d8 | 
[V:3] B4B4 | 
[V:4] G2G4G2 | 
[V:5] G2FED4- | 
[V:6] G,,4G,,4 | 
[V:1] D8 | 
[V:2] z4d4 | 
[V:3] B4d4- | 
[V:4] G6FE | 
[V:5] D4G4 | 
[V:6] G,,4G,,4 | 
[V:1] F4F4 | 
[V:2] d4d4 | 
[V:3] d2cBA4- | 
[V:4] D8 | 
[V:5] A4F4 | 
[V:6] D,8 | 
[V:1] F4A4- | 
[V:2] f6ed | 
[V:3] A4d4 | 
[V:4] A4A4 | 
[V:5] F4F4 | 
[V:6] D,4D,4 | 
[V:1] A2GFE4- | 
[V:2] c8 | 
[V:3] e4c4 | 
[V:4] A4G2F2 | 
[V:5] E3FG2A2- | 
[V:6] A,,2C,4A,,2 | 
[V:1] E4A4 | 
[V:2] z8 | 
[V:3] c4c4 | 
[V:4] E3DC4 | 
[V:5] AGG3^F^F2 | 
[V:6] C,3B,,A,,4 | 
[V:1] B4G4 | 
[V:2] z8 | 
[V:3] B3cd2e2- | 
[V:4] D2E2D2G2- | 
[V:5] G8 | 
[V:6] G,,8 | 
[V:1] [M:3/1]G6G6 | 
[V:2] [M:3/1]z6G6 | 
[V:3] [M:3/1]e3d9/^c3/^c3 | 
[V:4] [M:3/1]G3/F3/E3/D3/E6 | 
[V:5] [M:3/1]z12 | 
[V:6] [M:3/1]z12 | 
[V:1] F9/G3/A3_B3- | 
[V:2] A3B3A3d3- | 
[V:3] d12 | 
[V:4] D6z6 | 
[V:5] z12 | 
[V:6] z12 | 
[V:1] B3/A3/A9/G3/G3 | 
[V:2] d3/c3/_B3/A3/_B6 | 
[V:3] [M:3/1]z12 | 
[V:4] z12 | 
[V:5] z12 | 
[V:6] z12 | 
[V:1] A12 | 
[V:2] [M:3/1]A12 | 
[V:3] z12 | 
[V:4] [M:3/1]z4z4A4 | 
[V:5] z12 | 
[V:6] [M:3/1]z4z4A,,4 | 
[V:1] [M:3/1]z12 | 
[V:2] z12 | 
[V:3] z12 | 
[V:4] G6F2E2D2 | 
[V:5] c6B2A2G2 | 
[V:6] C,8C,4 | 
[V:1] z12 | 
[V:2] z4z4A4 | 
[V:3] z12 | 
[V:4] D8C4 | 
[V:5] G8^F4 | 
[V:6] B,,4A,,8 | 
[V:1] z12 | 
[V:2] d6c2B2A2 | 
[V:3] g6f2e2d2 | 
[V:4] D8G4 | 
[V:5] G12 | 
[V:6] G,,12 | 
[V:1] z12 | 
[V:2] A8G4 | 
[V:3] d8^c4 | 
[V:4] F4E8 | 
[V:5] z12 | 
[V:6] z12 | 
[V:1] d6c2_B2A2 | 
[V:2] A4z4z4 | 
[V:3] d12 | 
[V:4] D8z4 | 
[V:5] F2G2A2_B2G4 | 
[V:6] z12 | 
[V:1] A8G4 | 
[V:2] A2B2c2d2B4 | 
[V:3] z12 | 
[V:4] z12 | 
[V:5] F6D2E4 | 
[V:6] z4z4G,4 | 
[V:1] A12 | 
[V:2] A4c4d4 | 
[V:3] c2d2e2f2d4 | 
[V:4] z12 | 
[V:5] F4c2B2A2G2 | 
[V:6] F,4C,4F,4 | 
[V:1] z12 | 
[V:2] e4f8 | 
[V:3] c6A2B4 | 
[V:4] z12 | 
[V:5] G6E2F4 | 
[V:6] E,4D,8 | 
[V:1] G2A2B2c2A4 | 
[V:2] e6d2c4 | 
[V:3] c4g2f2e2d2 | 
[V:4] z12 | 
[V:5] G8z4 | 
[V:6] C,4z4z4 | 
[V:1] G6E2^F4 | 
[V:2] B4A8 | 
[V:3] d6B2c4 | 
[V:4] z12 | 
[V:5] z12 | 
[V:6] z12 | 
[V:1] G4d2c2B2A2 | 
[V:2] G12 | 
[V:3] d8z4 | 
[V:4] d8d4 | 
[V:5] z12 | 
[V:6] z12 | 
[V:1] A6F2G4 | 
[V:2] z12 | 
[V:3] z12 | 
[V:4] c4B8 | 
[V:5] z4z4G4 | 
[V:6] z4z4E,4 | 
[V:1] A8z4 | 
[V:2] z12 | 
[V:3] z12 | 
[V:4] A4G2F2E2D2 | 
[V:5] c6B2A2G2 | 
[V:6] A,,4C,8 | 
[V:1] z12 | 
[V:2] z4z4A4 | 
[V:3] z4z4d4 | 
[V:4] D4E4F4 | 
[V:5] G8F4 | 
[V:6] B,,4C,4D,4 | 
[V:1] z12 | 
[V:2] d6c2B2A2 | 
[V:3] g6f2e2d2 | 
[V:4] D8G4 | 
[V:5] G12 | 
[V:6] G,,12 | 
[V:1] z4z4A4 | 
[V:2] A4B4c4 | 
[V:3] d8c4 | 
[V:4] F4G4A4 | 
[V:5] z12 | 
[V:6] z12 | 
[V:1] d6c2_B2A2 | 
[V:2] A4z4z4 | 
[V:3] d12 | 
[V:4] D8z4 | 
[V:5] F2G2A2_B2G4 | 
[V:6] z12 | 
[V:1] A8G4 | 
[V:2] A2B2c2d2B4 | 
[V:3] z12 | 
[V:4] z12 | 
[V:5] F6D2E4 | 
[V:6] z4z4G,4 | 
[V:1] A12 | 
[V:2] A4c4d4 | 
[V:3] c2d2e2f2d4 | 
[V:4] z12 | 
[V:5] F4c2_B2A2G2 | 
[V:6] F,4C,4F,4 | 
[V:1] z12 | 
[V:2] e4f8 | 
[V:3] c6A2B4 | 
[V:4] z12 | 
[V:5] G6E2F4 | 
[V:6] E,4D,8 | 
[V:1] G2A2B2c2A4 | 
[V:2] e6d2c4 | 
[V:3] c4g2f2e2d2 | 
[V:4] z12 | 
[V:5] G4G4A4 | 
[V:6] C,4z4z4 | 
[V:1] G6E2^F4 | 
[V:2] B4A8 | 
[V:3] d6B2c4 | 
[V:4] z12 | 
[V:5] B4c4A4 | 
[V:6] z12 | 
[V:1] G4d2c2B2A2 | 
[V:2] G8z4 | 
[V:3] d4d4e4 | 
[V:4] d8G4 | 
[V:5] B8z4 | 
[V:6] G,8G,4 | 
[V:1] A6F2G4 | 
[V:2] z4z4B4 | 
[V:3] f4g4e4 | 
[V:4] A4B8 | 
[V:5] z12 | 
[V:6] D,4G,8 | 
[V:1] A4A4B4 | 
[V:2] c6c2B4 | 
[V:3] f8z4 | 
[V:4] A6G2F2E2 | 
[V:5] z12 | 
[V:6] F,6E,2D,4 | 
[V:1] c4d4B4 | 
[V:2] A8^G4 | 
[V:3] z12 | 
[V:4] E6D2D4 | 
[V:5] z12 | 
[V:6] C,4B,,8 | 
[V:1] c8z4 | 
[V:2] A4c4B4 | 
[V:3] z12 | 
[V:4] E4A4G4 | 
[V:5] z12 | 
[V:6] A,,8E,4 | 
[V:1] z12 | 
[V:2] d6c2B2A2 | 
[V:3] z12 | 
[V:4] A6G2F2E2 | 
[V:5] z12 | 
[V:6] F,6E,2D,4 | 
[V:1] z12 | 
[V:2] A8^G4 | 
[V:3] z12 | 
[V:4] E8D4 | 
[V:5] z4z4B4 | 
[V:6] C,4B,,8 | 
[V:1] z12 | 
[V:2] A2e4d2c4 | 
[V:3] z12 | 
[V:4] E12 | 
[V:5] c6B2A4 | 
[V:6] A,,12 | 
[V:1] z12 | 
[V:2] B4A8 | 
[V:3] z4z4f4 | 
[V:4] z4z4D4 | 
[V:5] G4F8 | 
[V:6] z4z4D,4 | 
[V:1] z12 | 
[V:2] G8z4 | 
[V:3] g6f2e4 | 
[V:4] G2A2B2c2A2G2 | 
[V:5] E12 | 
[V:6] E,6D,2C,4 | 
[V:1] z4z4c4 | 
[V:2] z12 | 
[V:3] d4c8 | 
[V:4] G8F4 | 
[V:5] z4z4A4 | 
[V:6] B,,4A,,8 | 
[V:1] d6c2B4 | 
[V:2] G4B6c2 | 
[V:3] B12 | 
[V:4] D4E2F2G4 | 
[V:5] B6A2G4 | 
[V:6] G,,12 | 
[V:1] A4G8 | 
[V:2] d6c2c4 | 
[V:3] z4z4e4 | 
[V:4] A4B4G4 | 
[V:5] F4E8 | 
[V:6] z12 | 
[V:1] F12 | 
[V:2] d6c2B2A2 | 
[V:3] f6e2d4 | 
[V:4] A8z4 | 
[V:5] D8D4 | 
[V:6] D,8D,4 | 
[V:1] z4z4B4 | 
[V:2] A8G4 | 
[V:3] c4B8 | 
[V:4] z4z4E4 | 
[V:5] E4F4G4 | 
[V:6] A,,4D,4E,4 | 
[V:1] c6B2A4 | 
[V:2] A12 | 
[V:3] A8A4 | 
[V:4] A6G2E4 | 
[V:5] E6D2E2F2 | 
[V:6] A,,12 | 
[V:1] G4F8 | 
[V:2] z12 | 
[V:3] B4c4d4 | 
[V:4] E4A4D4 | 
[V:5] G4A4F4 | 
[V:6] z12 | 
[V:1] E8E4 | 
[V:2] z4z4G4 | 
[V:3] B6A2B2c2 | 
[V:4] E8E4 | 
[V:5] G8G4 | 
[V:6] z12 | 
[V:1] F4G4A4 | 
[V:2] A4c2d2e4 | 
[V:3] d4e4c4 | 
[V:4] D4C8 | 
[V:5] F4E8 | 
[V:6] z4z4A,,4 | 
[V:1] F6E2F2G2 | 
[V:2] A4A4B4 | 
[V:3] d8d4 | 
[V:4] F8D4 | 
[V:5] D12 | 
[V:6] D,6C,2B,,4 | 
[V:1] A4B4G4 | 
[V:2] c4d6e2 | 
[V:3] c4B8 | 
[V:4] E4G8 | 
[V:5] z4z4D4 | 
[V:6] A,,4G,,8 | 
[V:1] A12- | 
[V:2] f4e6d2 | 
[V:3] A12 | 
[V:4] F4C4D2E2 | 
[V:5] D4E4F4- | 
[V:6] D,4A,,4D,4- | 
[V:1] A12 | 
[V:2] d6^c2^c4 | 
[V:3] z4z4A4 | 
[V:4] F2G2A4A4 | 
[V:5] F2D2E8 | 
[V:6] D,4A,,8 | 
[V:1] A12- | 
[V:2] d2f4e2d4 | 
[V:3] A12- | 
[V:4] F6G2A2B2 | 
[V:5] D4F8 | 
[V:6] D,,6E,,2F,,2G,,2 | 
[V:1] A12- | 
[V:2] c12- | 
[V:3] A12- | 
[V:4] c4C8 | 
[V:5] E12- | 
[V:6] A,,12- | 
[V:1] !fermata!A12 | 
[V:2] !fermata!c12 | 
[V:3] !fermata!A12 | 
[V:4] !fermata!C12 | 
[V:5] !fermata!E12 | 
[V:6] !fermata!A,,12 | 
[V:1] A12- | 
[V:2] d12 | 
[V:3] A12- | 
[V:4] F12 | 
[V:5] D12 | 
[V:6] D,,12 | 
[V:1] A12 |]  
[V:2] d12 |]  
[V:3] A12 |]  
[V:4] F12 |]  
[V:5] D12 |]  
[V:6] D,,12 |]  



